X:767
%%etbk:tnset id:500,pos:1,rep:3x,ant:
%%etbk:color #ffffcc
%%etbk:pldat 2016-09-04T13:27,2016-05-05T15:05,2016-05-04T14:31,2016-05-03T16:20,2016-05-02T18:04,2016-04-25T18:01,2016-04-09T14:28,2016-04-08T18:11,2016-04-07T15:24,2016-04-05T15:35,2016-04-04T18:38,2016-04-03T13:46,2016-04-02T13:43,2016-03-31T15:16,2016-03-30T15:55,2016-03-28T16:03,2016-03-27T15:00,2016-03-24T15:32,2016-03-22T15:08,2016-03-11T17:18,2016-03-10T18:41,2016-03-09T15:59,2016-03-08T17:03,2016-03-07T18:51,2016-02-18T19:05,2016-02-17T17:45,2016-02-16T16:25,2016-02-15T18:52,2016-02-13T15:57,2016-02-11T19:41,2016-02-10T16:15,2016-02-08T18:09,2016-02-07T14:35,2016-01-27T15:14,2016-01-25T18:02,2016-01-23T16:42,2016-01-21T18:17,2016-01-19T17:49,2016-01-18T18:15,2016-01-17T13:54,2016-01-14T17:54,2016-01-13T16:05,2016-01-12T16:48,2016-01-11T18:06,2016-01-10T12:51
T: Ned of the Hill
Z: Piano Box Version by Martin Fleischmann
H: Created 2016-01-10 /  Last Modified 2016-03-30
P: I-V-R-I-V-R-R-I-I                % play the parts in this order
M:3/4
L:1/8
R: song
K: Bbmaj
V:M1  clef=treble  
V:M2  clef=treble
V:M3  clef=treble     
%            End of header, start of tune body:
P:I
[V:M1]!5!dc|!coda!"Bb"!3!B2 !1!G!2!A B!4!c|"Bb"!3!B2 GA B!4!c|!1!d2 b2 a2|"Eb"!3!!5!g2 !4!fg !3!eg|"Bb"!4!fg fe d!1!c|!3!B2 !2!AB c!5!d|"Eb"!3!e3 d c!2!B|"F"!3!c3d cB|c4 z2|
[V:M2]fe|!coda!"Bb"d2dcd2|"Bb"d2dcd2|"Bb"d2f3d|"Eb"e4fe|"Bb"d2dcB2|B4(3Bcd|"Eb"B4G2|"F"F4 f2|-f2d3c|
[V:M3]fe|!coda!"Bb"d2dcd2|"Bb"d2dcd2|"Bb"d2c2d2|"Eb"B4BG|"Bb"F2FGBc|d4B2|"Eb"B4G2|"F"F6 |[f6c]|
P:V
[V:M1]dc|"Bb"B4 GA|"Bb"B2 d3e|f2 b3 a|"Eb"g4 g2|"Bb"f4 dc|B4 cd|"Eb"e3 d cB|"F"[F6c] -|[F4c] z2|
[V:M2]z2|"Bb"[B4F][BF][Gc] |"Bb"[B2d]z2[B2F]-|[B4F][d2B]|"Eb"[B6e]|"Bb"[B4d]dc|[B6F]|"Eb"B4G2|"F"F6 -|[f4c] z2|
[V:M3]z2|"Bb"[B4F][BF][Gc] |"Bb"[B6d]|[B6F]|"Eb"[B6E]|"Bb"[B6F]|[B6F]|"Eb"[F6E]|"F"[F6C] -|[F4C] z2|
[V:M1]dc|"Bb"B4 GA|"Bb"B d-d2 de|f2 b3 a|"Eb"g4 b2|"Bb"f4 dc|B4 cd|"Eb"c2 B3A|"Bb"B6-|B4 z2|
[V:M2]z2|"Bb"[B4F][BF][Gc] |"Bb"[B2d]z2[B2F]-|[B4F][d2f]|"Eb"[B6e]|"Bb"[B4d]dc|[B6F]|"Eb"B2G3B|"Bb"[F6B] |d4 z2|
[V:M3]z2|"Bb"[B6F] |"Bb"[B6F]|[B6F]|"Eb"[B6E]|"Bb"[B6F]|[B6F]|"Eb"[F6E]|"Bb"[F6B,] -|[F4B,] z2|
P:R
[V:M1]df|"Eb"g2 e2> b|"Bb"f4 df|"Eb"g2 b2>g|"Bb"f4 fg|f4 dc|B4 (3Bcd|"Eb"e3 d cB|"F"[F6c] -|[F4c] z2|
[V:M2]z2|"Eb"[e6B]|"Bb"[d6B]|"Eb"[e6B]|[d6B]|"Bb"F4FG|B6|"Eb"B6|"F"c6 -|c2 d2cd|
[V:M3]z2|"Eb"[e6B]|"Bb"[d6B]|"Eb"[e6B]|"Bb"[d6B]|B4Bc|d6|"Eb"[e6f]|"F"[f6c] -|[f4c] z2|
[V:M1]dc|"Eb"B2 G3 A|"Bb"B4 Bc|d2 b3 a|"Eb"g4 ag|"Bb"f4 dc|B4 cd|"Eb"c2 B3c|"D.C.""Bb"B6-|B4 z2||
[V:M2]z2|"Eb"B2 G4|"Bb"F6|!1!F2 GB !4!c!5!d|"Eb"!3!e3e dc|"Bb"!2!d6|!2!B4 cd|"Eb"!3!c2 B3c|"D.C.""Bb"!2!B6-|B4 z2||
[V:M3]z2|"Eb"[e6B]|"Bb"[d6B]|F2 GB cd|"Eb"e3e dc|"Bb"d6|B4 cd|"Eb"c2 B3c|"D.C.""Bb"B6-|B4 z2||


